X:1
T:Schule fuer die Gitarre - Uebungsstuecke
T:No. 2 - Andante
T:No. 2 - Andante
T:Schule für die Gitarre - Übungsstücke
T:Johann Kaspar Mertz (1806-1856)
T:		
C:Johann Kaspar Mertz (1806-1856)
Z:
%%score ( 1 2 3 )
L:1/8
Q:1/4=92
M:4/4
K:C
V:1 treble-8 nm="Klassische Gitarre"
V:2 treble-8 
V:3 treble-8 
V:1
!p!"^Andante" e4 e2 e2 | e2 f2 z4 | z2 a2 g2 f2 | e2 B2 c2 z2 | e4 e2 e2 | e2 f2 z4 | z2 a2 g2 B2 | %7
 c4 C2 z2 |!p! =B2 B2 B2 B2 | B2 c2 [c=g]2 [c^f]2 | [c^f]2 [ce]2!>(! d2 c2!>)! | B2 [^ce]2 d2 =c2 | %12
 =B2 B2 B2 B2 | B2 c2 [c=g]2 [c^f]2 | [c^f]2 [ce]2 c2 A2 | GBDG B,GG,G | z G e2 e2 e2 | e2 f2 z4 | %18
 z2 a2 g2 f2 | e2 B2 c2 z2 | e4 e2 e2 | e2 f2 z4 | z2 a2 g2 B2 | c4 C2 z2 |] %24
V:2
 z GCG z G^CG | DGBG B,GA,G | z GB!>(!G BGBG!>)! | CGDG EGFG | EGDG CG^CG | DGBG B,GA,G | %6
 z GBG BGBG | z!f! EFG C2 z2 | GDGD GDGD | ^G!<(!DAD ADAD!<)! | ADAD dDAD | GD^A!>(!D BD=A!>)!D | %12
 GDGD GDGD | ^G!<(!DAD AD!<)!AD | ADA!>(!D ADAD!>)! | G2 D2 B,2 G,2 | C4 z G^CG | DGBG B,GG,G | %18
 z GBG BGBG | CGDG EGFG | EGDG CG^CG | DGBG B,GA,G | z GBG BGBG | z EFG C2 z2 |] %24
V:3
 x8 | x8 | G,4 z4 | x8 | x8 | x8 | G,4 z4 | x8 | x8 | x8 | x8 | x8 | x8 | x8 | x8 | x8 | z2 eG x4 | %17
 x8 | G,4 z4 | x8 | x8 | x8 | G,4 z4 | x8 |] %24

